!!!COM: Bach, Johann Sebastian
!!!OPR: Joh. Seb. Bachs vierstimmige Choralgesänge
!!!XEN: Four-part Chorales
!!!OTL: Chorale 7. Ach, was soll ich Sünder machen
!!!SCT: BWV 259
!!!SCA: Thematisch-systematisches Verzeichnis der musikalischen Werke Johann Sebastian Bach: Bach-Werke-Verzeichnis (Schmieder)
!!!YOR: Bach Gesellschaft Edition xxxix
!!!ENC: Steven Rasmussen
!!!CDT: 1685/3//-1750/7/28/
!!!OCY: Deutschland
!!!YEC: Copyright (c) 1994, 2000 Center for Computer Assisted Research in the Humanities
!!!YEM: Rights to all derivative editions reserved
!!!YEN: United States of America
**kern	**kern	**kern	**kern	**silbe
*I:[BASSO]	*I:[TENORE]	*I:[ALTO]	*I:[SOPRANO]	*I:[SOPRANO]
*clefF4	*clefGv2	*clefG2	*clefG2	*
*k[f#]	*k[f#]	*k[f#]	*k[f#]	*
*G:	*G:	*G:	*G:	*
*M4/4	*M4/4	*M4/4	*M4/4	*
=1-	=1-	=1-	=1-	=1-
8EL	4G	4B	4e	Ach,
8F#J	.	.	.	.
8GL	4G	4B	4e	was
8F#J	.	.	.	.
8EL	4B	4e	4g	soll
8DJ	.	.	.	.
8CL	4B	4e	4g	ich
8BBJ	.	.	.	.
=2	=2	=2	=2	=2
8AAL	4c	4e	4a	Sün-
8GGJ	.	.	.	.
8FF#L	4d	8aL	4a	-der
8DDJ	.	8f#J	.	.
4GG	4d	4g	4b	ma-
4G;	4d;	4g;	4b;	-chen?
=3	=3	=3	=3	=3
8GGL	4d	4g	4b	ach,
8AAJ	.	.	.	.
8BBL	8dL	4g	4dd	was
8EJ	8BJ	.	.	.
8AAL	8cL	8gL	4cc	soll
8DJ	8dJ	8f#J	.	.
8GGL	4d	4g	4b	ich
8BBJ	.	.	.	.
=4	=4	=4	=4	=4
8CL	8eL	4g	4.a	fan-
8AAJ	8cJ	.	.	.
4D	8AL	4f#	.	.
.	16dL	.	8a	-gen
.	16cJJ	.	.	.
2GG;	2B;	2d;	2g;	an,
=5	=5	=5	=5	=5
8F#L	4d	4f#	4a	mein
8EJ	.	.	.	.
8DL	4A	4e	4a	Ge-
8CJ	.	.	.	.
8BBL	8AL	8d#L	4b	-wis-
8D#J	16GL	8f#J	.	.
.	16F#JJ	.	.	.
8EL	8GL	8BL	4g	-sen
8CJ	8cJ	16eL	.	.
.	.	16d#JJ	.	.
=6	=6	=6	=6	=6
8AAL	8cL	4e	4.f#	klagt
8FF#J	8AJ	.	.	.
4BB	8F#L	4d#	.	.
.	16BL	.	8f#	mich
.	16AJJ	.	.	.
2EE;	2G;	2B;	2e;	an,
=7	=7	=7	=7	=7
8EEL	4B	4g	4ee	es
8FF#J	.	.	.	.
8GGL	4B	4g	4ee	be-
8AAJ	.	.	.	.
8BBL	4B	4f#	4dd	-gin-
8C#J	.	.	.	.
8DL	4B	4f#	4dd	-net
8BBJ	.	.	.	.
=8	=8	=8	=8	=8
8EL	4.B	4g	4cc#	auf-
8C#J	.	.	.	.
4F#	.	4f#	4cc#	-zu-
.	8A#	.	.	.
4BB	4d	4f#	4b	-wa-
4BB;	4d;	4f#;	4b;	-chen;
=9	=9	=9	=9	=9
8BL	8dL	4f#	4dd	dies
8AJ	8cJ	.	.	.
8GL	4B	4g	4dd	ist
8F#J	.	.	.	.
8EL	8eL	8gL	4cc	mei-
8F#J	8dJ	8aJ	.	.
8GL	8dL	8aL	4b	-ne
8EJ	8eJ	8gJ	.	.
=10	=10	=10	=10	=10
8CL	8eL	4g	4.a	Zu-
8AAJ	8cJ	.	.	.
4D	8AL	4f#	.	.
.	16dL	.	8a	-ver-
.	16cJJ	.	.	.
2GG;	2B;	2d;	2g;	-sicht,
=11	=11	=11	=11	=11
4G	4c#	4e	4a	mei-
8F#L	8dL	4f#	4a	-nen
8EJ	8cnJ	.	.	.
4D#	4B	4.f#	4b	Je-
8EL	8BL	.	4g	-sum
8CJ	8cJ	8e	.	.
=12	=12	=12	=12	=12
8AAL	8cL	4e	4.f#	lass'
8FF#J	8AJ	.	.	.
4BB	8F#L	4d#	.	.
.	16BL	.	8f#	ich
.	16AJJ	.	.	.
2EE;	2G#;	2B;	2e;	nicht.
==|!	==|!	==|!	==|!	==|!
*-	*-	*-	*-	*-
!!!RWG: Key is interpreted using the Humdrum key tool.
!!!URL-pdf: https://s9.imslp.org/files/imglnks/usimg/6/6b/IMSLP24489-PMLP09471-CCARH_Bach_Chorales.pdf#page=4 Musedata edition
!!!URL-pdf: https://s9.imslp.org/files/imglnks/usimg/7/7a/IMSLP04155-Bach_-_BGA_253-438.pdf#page=5 	Bach-Gesellschaft Ausgabe, Band 39 (pp.175-276) Leipzig: Breitkopf und Härtel, 1892. Plate B.W. XXXIX.
!!!END: 1994/05/03
!!!EMD: Converted from MuseData to Humdrum Dec 19, 2000, by Andreas Kornstaedt using muse2kern.
!!!EED: Craig Stuart Sapp
!!!EEV: 2024/03/31
!!!filter-keyboard: satb2gs
!!!title: @{OTL} (@{SCT})
